public/avatar/hat/199.svg

<svg xmlns:xlink="http://www.w3.org/1999/xlink" height="92.9" width="100.7" xmlns="http://www.w3.org/2000/svg"><use height="34.45" transform="translate(19.85 46.6)" width="38.05" xlink:href="#a"/><defs><g id="a" fill-rule="evenodd"><path d="M-8.65-1q4.45-3.15 8.3-1.45 3.75-1.8 8.25 1 4.3 2.75 7.3 8.85 3.55 7.2 4.05 16.8-2.2-1.6-3.85-1.8-.45-5.75-4.05-13.15L4.7 9.3q-16 .15-16.75.25-1.45 1.1-2.75 12.35l-4 2.3q-.15-8.9 3.15-16.1 2.8-6.15 7-9.1" transform="translate(18.8 3.15)"/><path d="M-12.05 3.65q6-7.85 11.75-5 5.5-2.9 11.25 3.95Q17.2 10 18.2 23.55l-2.35-1.2q-.5-7.3-3.9-14.25-23.45.15-24.4.35-.8.15-2.35 13.45-.75.65-3 1.6-.45-11.65 5.75-19.85" fill="#803500" transform="translate(18.8 3.15)"/><path d="M13.4 6.05q4.25 7.55 4.8 17.5l-2.35-1.2q-.5-7.3-3.9-14.25l-16.35.15q.1-.6-1.85-1.05-2.1-.45-2.4-1.15 5.4-.65 6.8-1.35Q.6 3.7.1 1.7q2.45.85 3.15 2.9 1.3-2.75-.85-4.9 2.65.5 4.1 3.05-.05-3.55-3.8-4.9 6.2.2 10.7 8.2" fill="#421400" transform="translate(18.8 3.15)"/><path d="m-12.15 6.4 4.45.1.2.4-.15.4q-1.65 1.4-1.2 10.3.35 8.55 1.9 13 .1.3-.05.5l-.45.2q-1.2-.05-3.6-1.95-2.95-2.3-4.45-5.4-3.85-7.9 3.05-17.35l.3-.2" transform="translate(18.8 3.15)"/><path d="m-11.75 7.35 3.05-.2q-1.45 1.9-1.1 10.25.35 7.8 1.65 12.6-14.05-9.3-3.6-22.65" fill="#803500" transform="translate(18.8 3.15)"/><path d="M-10.3 9.45q1.1-.25.95.2Q-10.85 14.4-8.1 30q-1.35-.2-2.75-1.8-1.35-1.6-1.55-3 1.35 2.05 2.4 2.65-.9-.95-1.55-3.4-.55-2.1-.5-3.45.85 3.9 2.05 4.85l-.75-3.25-.4-5.45q0-2.65.35-4.9l.5-2.8" fill="#421400" transform="translate(18.8 3.15)"/><path d="m7.65 6.4 4.45-.1.3.2q6.9 9.5 3.05 17.3-1.5 3.1-4.45 5.4-2.4 1.9-3.6 1.95-.3 0-.45-.2l-.05-.45q1.5-4.5 1.9-13 .45-8.95-1.2-10.35l-.15-.4.2-.35" transform="translate(18.8 3.15)"/><path d="M11.7 7.25q10.5 13.3-3.6 22.65 1.3-4.85 1.65-12.65.35-8.35-1.1-10.2l3.05.2" fill="#803500" transform="translate(18.8 3.15)"/><path d="M12.9 8.8q4.9 6.85 2.15 13.85-2.4 5.85-7 7.3l.65-2.9.4-2.95q.35 1.9.15 3.6 1.1-2.3 1.4-5.75.6 2.75-.05 5.1 1.7-2.45 2.25-4.1.9-2.5.9-4.35.3-4.25-.85-9.8" fill="#421400" transform="translate(18.8 3.15)"/><path d="M-3.9.15q.15.75 0 2.25.8-.9 1.4-2.6.3.1 1.3 2l.15-.75L-1-.6.25.05l-.5-1.15Q1-.25 1.3 1L-.45.25q0 .85-.7 2.55-.5-.15-1.25-1.95L-3.75 3.2l-.65.85-.1-2.4-2.25 1.45-2.5 1.25q.4-1.6 1.75-3.3l-.8.4-1.95 1L-8.15.2l-.5.9L-6.5.4l-.8 1.95 3.4-2.2m-10.7 15.6v.95l.15 1.75.35-1.25q.25-1 .8-1.35l.35 2 .15-1.05.5-1.05.05.9.15.9.1-1.05.4-1.55-.1 1.75-.05 3.15q-.35-1.95-.75-2.7l-.5 2.5q-.35-2-.6-2.6l-.35 1.5-.25 1.65q-.85-1.8-.85-3.55l-.6 1.55q0-1.9.4-2.7l.05-.05-.1 1.2.7-.9m24.5-.05.35 1.4.1.9.1-.75q-.05-.6.05-.85l.45.95.15.9.35-1.75q.45.25.7 1.2l.3 1.1.1-1.55q-.05-.6.05-.85l.65.8-.15-1.05.05.05q.3.6.4 2.4L13 17.2q0 1.45-.75 3.15L12 18.9l-.35-1.35-.5 2.35-.25-1.05-.2-1.15-.7 2.35-.1-4.35" fill="#d47a3b" transform="translate(18.8 3.15)"/><path d="M16.6 9.95q-.1.35-.45.35l-16.35 1-15.65-1.25q-.45 0-.45-.5-.3-3.85 1.85-4.6h.15Q-7.2 6.1-.3 6.1l14.5-.95q.85.1 1.65 1.35 1.2 1.9.75 3.45" fill="#150000" transform="translate(18.8 3.15)"/><path d="m15.7 9.15-16 1.15-14.8-1.35q-.2-2.55 1-3l.3-.05Q-7.05 7.2-.3 7.2l14.4-1q1.7.4 1.6 2.95" fill="#ff7900" transform="translate(18.8 3.15)"/><path d="m-6.25 6.65-1.3.85q-1.35 1.05-1.5 2l-6.1-.65q-.2-2.5 1.1-2.95l7.8.75" fill="#ffe2cc" transform="translate(18.8 3.15)"/><path d="M15.7 9.15 3.65 9.8q2.4-.5 3.45-3l7-.6q1.7.4 1.6 2.95" fill="#bc3506" transform="translate(18.8 3.15)"/></g></defs></svg>

<?xml version="1.0" encoding="UTF-8" standalone="no"?>
<svg xmlns:xlink="http://www.w3.org/1999/xlink" height="92.9px" width="100.7px" xmlns="http://www.w3.org/2000/svg">
  <g transform="matrix(1.0, 0.0, 0.0, 1.0, 38.65, 49.75)">
    <use height="34.45" transform="matrix(1.0, 0.0, 0.0, 1.0, -18.8, -3.15)" width="38.05" xlink:href="#shape0"/>
  </g>
  <defs>
    <g id="shape0" transform="matrix(1.0, 0.0, 0.0, 1.0, 18.8, 3.15)">
      <path d="M-8.65 -1.0 Q-4.2 -4.15 -0.35 -2.45 3.4 -4.25 7.9 -1.45 12.2 1.3 15.2 7.4 18.75 14.6 19.25 24.2 17.05 22.6 15.4 22.4 14.95 16.65 11.35 9.25 L4.7 9.3 Q-11.3 9.45 -12.05 9.55 -13.5 10.65 -14.8 21.9 L-18.8 24.2 Q-18.95 15.3 -15.65 8.1 -12.85 1.95 -8.65 -1.0" fill="#000000" fill-rule="evenodd" stroke="none"/>
      <path d="M-12.05 3.65 Q-6.05 -4.2 -0.3 -1.35 5.2 -4.25 10.95 2.6 17.2 10.0 18.2 23.55 L15.85 22.35 Q15.35 15.05 11.95 8.1 -11.5 8.25 -12.45 8.45 -13.25 8.6 -14.8 21.9 -15.55 22.55 -17.8 23.5 -18.25 11.85 -12.05 3.65" fill="#803500" fill-rule="evenodd" stroke="none"/>
      <path d="M13.4 6.05 Q17.65 13.6 18.2 23.55 L15.85 22.35 Q15.35 15.05 11.95 8.1 L-4.4 8.25 Q-4.3 7.65 -6.25 7.2 -8.35 6.75 -8.65 6.05 -3.25 5.4 -1.85 4.7 0.6 3.7 0.1 1.7 2.55 2.55 3.25 4.6 4.55 1.85 2.4 -0.3 5.05 0.2 6.5 2.75 6.45 -0.8 2.7 -2.15 8.9 -1.95 13.4 6.05" fill="#421400" fill-rule="evenodd" stroke="none"/>
      <path d="M-12.15 6.4 L-7.7 6.5 -7.5 6.9 -7.65 7.3 Q-9.3 8.7 -8.85 17.6 -8.5 26.15 -6.95 30.6 -6.85 30.9 -7.0 31.1 L-7.45 31.3 Q-8.65 31.25 -11.05 29.35 -14.0 27.05 -15.5 23.95 -19.35 16.05 -12.45 6.6 L-12.15 6.4" fill="#000000" fill-rule="evenodd" stroke="none"/>
      <path d="M-11.75 7.35 L-8.7 7.15 Q-10.15 9.05 -9.8 17.4 -9.45 25.2 -8.15 30.0 -22.2 20.7 -11.75 7.35" fill="#803500" fill-rule="evenodd" stroke="none"/>
      <path d="M-10.3 9.45 Q-9.2 9.2 -9.35 9.65 -10.85 14.4 -8.1 30.0 -9.45 29.8 -10.85 28.2 -12.2 26.6 -12.4 25.2 -11.05 27.25 -10.0 27.85 -10.9 26.9 -11.55 24.45 -12.1 22.35 -12.05 21.0 -11.2 24.9 -10.0 25.85 L-10.75 22.6 -11.15 17.15 Q-11.15 14.5 -10.8 12.25 L-10.3 9.45" fill="#421400" fill-rule="evenodd" stroke="none"/>
      <path d="M7.65 6.4 L12.1 6.3 12.4 6.5 Q19.3 16.0 15.45 23.8 13.95 26.9 11.0 29.2 8.6 31.1 7.4 31.15 7.1 31.15 6.95 30.95 L6.9 30.5 Q8.4 26.0 8.8 17.5 9.25 8.55 7.6 7.15 L7.45 6.75 7.65 6.4" fill="#000000" fill-rule="evenodd" stroke="none"/>
      <path d="M11.7 7.25 Q22.2 20.55 8.1 29.9 9.4 25.05 9.75 17.25 10.1 8.9 8.65 7.05 L11.7 7.25" fill="#803500" fill-rule="evenodd" stroke="none"/>
      <path d="M12.9 8.8 Q17.8 15.65 15.05 22.65 12.65 28.5 8.05 29.95 L8.7 27.05 9.1 24.1 Q9.45 26.0 9.25 27.7 10.35 25.4 10.65 21.95 11.25 24.7 10.6 27.05 12.3 24.6 12.85 22.95 13.75 20.45 13.75 18.6 14.05 14.35 12.9 8.8" fill="#421400" fill-rule="evenodd" stroke="none"/>
      <path d="M-3.9 0.15 Q-3.75 0.9 -3.9 2.4 -3.1 1.5 -2.5 -0.2 -2.2 -0.1 -1.2 1.8 L-1.05 1.05 -1.0 -0.6 0.25 0.05 -0.25 -1.1 Q1.0 -0.25 1.3 1.0 L-0.45 0.25 Q-0.45 1.1 -1.15 2.8 -1.65 2.65 -2.4 0.85 L-3.75 3.2 -4.4 4.05 -4.5 1.65 -6.75 3.1 -9.25 4.35 Q-8.85 2.75 -7.5 1.05 L-8.3 1.45 -10.25 2.45 -8.15 0.2 -8.65 1.1 -6.5 0.4 -7.3 2.35 -3.9 0.15" fill="#d47a3b" fill-rule="evenodd" stroke="none"/>
      <path d="M-14.6 15.75 L-14.6 16.7 -14.45 18.45 -14.1 17.2 Q-13.85 16.2 -13.3 15.85 L-12.95 17.85 -12.8 16.8 -12.3 15.75 -12.25 16.65 -12.1 17.55 -12.0 16.5 -11.6 14.95 -11.7 16.7 -11.75 19.85 Q-12.1 17.9 -12.5 17.15 L-13.0 19.65 Q-13.35 17.65 -13.6 17.05 L-13.95 18.55 -14.2 20.2 Q-15.05 18.4 -15.05 16.65 L-15.65 18.2 Q-15.65 16.3 -15.25 15.5 L-15.2 15.45 -15.3 16.65 -14.6 15.75" fill="#d47a3b" fill-rule="evenodd" stroke="none"/>
      <path d="M9.9 15.7 L10.25 17.1 10.35 18.0 10.45 17.25 Q10.4 16.65 10.5 16.4 L10.95 17.35 11.1 18.25 11.45 16.5 Q11.9 16.75 12.15 17.7 L12.45 18.8 12.55 17.25 Q12.5 16.65 12.6 16.4 L13.25 17.2 13.1 16.15 13.15 16.2 Q13.45 16.8 13.55 18.6 L13.0 17.2 Q13.0 18.65 12.25 20.35 L12.0 18.9 11.65 17.55 11.15 19.9 10.9 18.85 10.7 17.7 10.0 20.05 9.9 15.7" fill="#d47a3b" fill-rule="evenodd" stroke="none"/>
      <path d="M16.6 9.95 Q16.5 10.3 16.15 10.3 L-0.2 11.3 -15.85 10.05 Q-16.3 10.05 -16.3 9.55 -16.6 5.7 -14.45 4.95 L-14.3 4.95 Q-7.2 6.1 -0.3 6.1 L14.2 5.15 Q15.05 5.25 15.85 6.5 17.05 8.4 16.6 9.95" fill="#150000" fill-rule="evenodd" stroke="none"/>
      <path d="M15.7 9.15 L-0.3 10.3 -15.1 8.95 Q-15.3 6.4 -14.1 5.95 L-13.8 5.9 Q-7.05 7.2 -0.3 7.2 L14.1 6.2 Q15.8 6.6 15.7 9.15" fill="#ff7900" fill-rule="evenodd" stroke="none"/>
      <path d="M-6.25 6.65 L-7.55 7.5 Q-8.9 8.55 -9.05 9.5 L-15.15 8.85 Q-15.35 6.35 -14.05 5.9 L-6.25 6.65" fill="#ffe2cc" fill-rule="evenodd" stroke="none"/>
      <path d="M15.7 9.15 L3.65 9.8 Q6.05 9.3 7.1 6.8 L14.1 6.2 Q15.8 6.6 15.7 9.15" fill="#bc3506" fill-rule="evenodd" stroke="none"/>
    </g>
  </defs>
</svg>
